;FLAVOR:Marlin
;TIME:3847
;Filament used: 3.35625m
;Layer height: 0.15
;Generated with Cura_SteamEngine 4.0.0
M140 S60
M105
M190 S60
M104 S200
M105
M109 S200
M82 ;absolute extrusion mode
;Basic settings: Layer height: 0.15 Walls: 1 Fill: {fill_density}
;Print time: 01:04:07
;Filament used: [3.36]m [10.0101942578125]g
;Filament cost: [0.0]
;M190 S60 ;Uncomment to add your own bed temperature line
;M109 S200 ;Uncomment to add your own temperature line
G21        ;metric values
G90        ;absolute positioning
M82        ;set extruder to absolute mode
M107       ;start with the fan off
G28 X0 Y0  ;move X/Y to min endstops
G29        ;Run the auto bed leveling
G1 Z15.0 F{travel_speed} ;move the platform down 15mm
G92 E0                  ;zero the extruded length
G1 F200 E3              ;extrude 3mm of feed stock
G92 E0                  ;zero the extruded length again
G1 F{travel_speed}
;Put printing message on LCD screen
M117 Printing...
G92 E0
G1 F2400 E-5
;LAYER_COUNT:177
;LAYER:0
M107
M204 S5000
M205 X30 Y30
G0 F3600 X120.188 Y132.455 Z0.2
M204 S500
M205 X20 Y20
;TYPE:SKIRT
G1 F2400 E0
G1 F1800 X120.824 Y131.988 E0.02624
G1 X121.504 Y131.587 E0.0525
G1 X122.222 Y131.257 E0.07878
G1 X122.969 Y131.002 E0.10504
G1 X123.738 Y130.823 E0.1313
G1 X124.522 Y130.723 E0.15758
G1 X125.117 Y130.7 E0.17739
G1 X174.883 Y130.7 E1.83261
G1 X175.672 Y130.74 E1.85889
G1 X176.452 Y130.859 E1.88513
G1 X177.217 Y131.057 E1.91141
G1 X177.957 Y131.331 E1.93766
G1 X178.666 Y131.679 E1.96393
G1 X179.337 Y132.097 E1.99022
G1 X179.961 Y132.58 E2.01647
G1 X180.398 Y132.985 E2.03628
G1 X180.515 Y133.102 E2.04179
G1 X181.045 Y133.688 E2.06807
G1 X181.512 Y134.324 E2.09431
G1 X181.913 Y135.004 E2.12057
G1 X182.243 Y135.722 E2.14685
G1 X182.498 Y136.469 E2.1731
G1 X182.677 Y137.238 E2.19936
G1 X182.777 Y138.022 E2.22565
G1 X182.8 Y138.617 E2.24545
G1 X182.8 Y161.383 E3.00266
G1 X182.76 Y162.172 E3.02893
G1 X182.641 Y162.952 E3.05517
G1 X182.443 Y163.717 E3.08146
G1 X182.169 Y164.457 E3.1077
G1 X181.821 Y165.166 E3.13397
G1 X181.403 Y165.837 E3.16026
G1 X180.92 Y166.461 E3.18651
G1 X180.515 Y166.898 E3.20633
G1 X180.398 Y167.015 E3.21183
G1 X179.812 Y167.545 E3.23811
G1 X179.176 Y168.012 E3.26435
G1 X178.496 Y168.413 E3.29061
G1 X177.778 Y168.743 E3.31689
G1 X177.031 Y168.998 E3.34315
G1 X176.262 Y169.177 E3.36941
G1 X175.478 Y169.277 E3.39569
G1 X174.883 Y169.3 E3.4155
G1 X125.117 Y169.3 E5.07072
G1 X124.328 Y169.26 E5.097
G1 X123.548 Y169.141 E5.12324
G1 X122.783 Y168.943 E5.14952
G1 X122.043 Y168.669 E5.17577
G1 X121.334 Y168.321 E5.20204
G1 X120.663 Y167.903 E5.22833
G1 X120.039 Y167.42 E5.25458
G1 X119.602 Y167.015 E5.27439
G1 X119.485 Y166.898 E5.2799
G1 X118.955 Y166.312 E5.30618
G1 X118.488 Y165.676 E5.33242
G1 X118.087 Y164.996 E5.35868
G1 X117.757 Y164.278 E5.38496
G1 X117.502 Y163.531 E5.41121
G1 X117.323 Y162.762 E5.43747
G1 X117.223 Y161.978 E5.46376
G1 X117.2 Y161.383 E5.48356
G1 X117.2 Y138.617 E6.24076
G1 X117.24 Y137.828 E6.26704
G1 X117.359 Y137.048 E6.29328
G1 X117.557 Y136.283 E6.31957
G1 X117.831 Y135.543 E6.34581
G1 X118.179 Y134.834 E6.37208
G1 X118.597 Y134.163 E6.39837
G1 X119.08 Y133.539 E6.42462
G1 X119.485 Y133.102 E6.44444
G1 X119.602 Y132.985 E6.44994
G1 X120.188 Y132.455 E6.47622
M204 S5000
M205 X30 Y30
G0 F3600 X120.456 Y132.753
M204 S500
M205 X20 Y20
G1 F1800 X121.078 Y132.3 E6.50181
G1 X121.743 Y131.914 E6.52739
G1 X122.445 Y131.599 E6.55298
G1 X123.176 Y131.359 E6.57857
G1 X123.927 Y131.196 E6.60413
G1 X124.692 Y131.112 E6.62972
G1 X125.117 Y131.1 E6.64387
G1 X174.883 Y131.1 E8.29909
G1 X175.651 Y131.14 E8.32467
G1 X176.411 Y131.259 E8.35025
G1 X177.154 Y131.457 E8.37583
G1 X177.873 Y131.731 E8.40142
G1 X178.559 Y132.078 E8.42699
G1 X179.206 Y132.494 E8.45257
G1 X179.806 Y132.975 E8.47815
G1 X180.116 Y133.267 E8.49231
G1 X180.233 Y133.384 E8.49782
G1 X180.747 Y133.956 E8.5234
G1 X181.2 Y134.578 E8.54899
G1 X181.586 Y135.243 E8.57456
G1 X181.901 Y135.945 E8.60015
G1 X182.141 Y136.676 E8.62574
G1 X182.304 Y137.427 E8.6513
G1 X182.388 Y138.192 E8.6769
G1 X182.4 Y138.617 E8.69104
G1 X182.4 Y161.383 E9.44824
G1 X182.36 Y162.151 E9.47382
G1 X182.241 Y162.911 E9.49941
G1 X182.043 Y163.654 E9.52498
G1 X181.769 Y164.373 E9.55057
G1 X181.422 Y165.059 E9.57614
G1 X181.006 Y165.706 E9.60173
G1 X180.525 Y166.306 E9.6273
G1 X180.233 Y166.616 E9.64147
G1 X180.116 Y166.733 E9.64697
G1 X179.544 Y167.247 E9.67255
G1 X178.922 Y167.7 E9.69814
G1 X178.257 Y168.086 E9.72371
G1 X177.555 Y168.401 E9.74931
G1 X176.824 Y168.641 E9.7749
G1 X176.073 Y168.804 E9.80046
G1 X175.308 Y168.888 E9.82605
G1 X174.883 Y168.9 E9.84019
G1 X125.117 Y168.9 E11.49542
G1 X124.349 Y168.86 E11.521
G1 X123.589 Y168.741 E11.54658
G1 X122.846 Y168.543 E11.57216
G1 X122.127 Y168.269 E11.59775
G1 X121.441 Y167.922 E11.62332
G1 X120.794 Y167.506 E11.6489
G1 X120.194 Y167.025 E11.67448
G1 X119.884 Y166.733 E11.68864
G1 X119.767 Y166.616 E11.69415
G1 X119.253 Y166.044 E11.71972
G1 X118.8 Y165.422 E11.74532
G1 X118.414 Y164.757 E11.77089
G1 X118.099 Y164.055 E11.79648
G1 X117.859 Y163.324 E11.82207
G1 X117.696 Y162.573 E11.84763
G1 X117.612 Y161.808 E11.87323
G1 X117.6 Y161.383 E11.88737
G1 X117.6 Y138.617 E12.64457
G1 X117.64 Y137.849 E12.67015
G1 X117.759 Y137.089 E12.69573
G1 X117.957 Y136.346 E12.72131
G1 X118.231 Y135.627 E12.7469
G1 X118.578 Y134.941 E12.77247
G1 X118.994 Y134.294 E12.79805
G1 X119.475 Y133.694 E12.82363
G1 X119.767 Y133.384 E12.8378
G1 X119.884 Y133.267 E12.8433
G1 X120.456 Y132.753 E12.86888
M204 S5000
M205 X30 Y30
G0 F3600 X120.724 Y133.05
M204 S500
M205 X20 Y20
G1 F1800 X121.33 Y132.613 E12.89373
G1 X121.98 Y132.242 E12.91862
G1 X122.666 Y131.943 E12.94351
G1 X123.38 Y131.719 E12.9684
G1 X124.113 Y131.572 E12.99326
G1 X125.117 Y131.5 E13.02674
G1 X174.883 Y131.5 E14.68196
G1 X175.63 Y131.54 E14.70685
G1 X176.368 Y131.659 E14.73171
G1 X177.09 Y131.857 E14.75661
G1 X177.786 Y132.13 E14.78148
G1 X178.449 Y132.477 E14.80636
G1 X179.072 Y132.892 E14.83126
G1 X179.833 Y133.55 E14.86472
G1 X179.95 Y133.667 E14.87023
G1 X180.45 Y134.224 E14.89512
G1 X180.887 Y134.83 E14.91997
G1 X181.258 Y135.48 E14.94486
G1 X181.557 Y136.166 E14.96975
G1 X181.781 Y136.88 E14.99464
G1 X181.928 Y137.613 E15.01951
G1 X182 Y138.617 E15.05299
G1 X182 Y161.383 E15.81019
G1 X181.96 Y162.13 E15.83507
G1 X181.841 Y162.868 E15.85993
G1 X181.643 Y163.59 E15.88483
G1 X181.37 Y164.286 E15.9097
G1 X181.023 Y164.949 E15.93459
G1 X180.608 Y165.572 E15.95948
G1 X179.95 Y166.333 E15.99294
G1 X179.833 Y166.45 E15.99845
G1 X179.276 Y166.95 E16.02334
G1 X178.67 Y167.387 E16.04819
G1 X178.02 Y167.758 E16.07308
G1 X177.334 Y168.057 E16.09797
G1 X176.62 Y168.281 E16.12286
G1 X175.887 Y168.428 E16.14773
G1 X174.883 Y168.5 E16.18121
G1 X125.117 Y168.5 E17.83643
G1 X124.37 Y168.46 E17.86131
G1 X123.632 Y168.341 E17.88618
G1 X122.91 Y168.143 E17.91108
G1 X122.214 Y167.87 E17.93594
G1 X121.551 Y167.523 E17.96083
G1 X120.928 Y167.108 E17.98573
G1 X120.167 Y166.45 E18.01919
G1 X120.05 Y166.333 E18.02469
G1 X119.55 Y165.776 E18.04959
G1 X119.113 Y165.17 E18.07444
G1 X118.742 Y164.52 E18.09933
G1 X118.443 Y163.834 E18.12422
G1 X118.219 Y163.12 E18.14911
G1 X118.072 Y162.387 E18.17397
G1 X118 Y161.383 E18.20745
G1 X118 Y138.617 E18.96465
G1 X118.04 Y137.87 E18.98953
G1 X118.159 Y137.132 E19.0144
G1 X118.357 Y136.41 E19.0393
G1 X118.63 Y135.714 E19.06416
G1 X118.977 Y135.051 E19.08905
G1 X119.392 Y134.428 E19.11395
G1 X120.05 Y133.667 E19.14741
G1 X120.167 Y133.55 E19.15291
G1 X120.724 Y133.05 E19.17781
M204 S5000
M205 X30 Y30
G0 F3600 X120.991 Y133.349
M204 S500
M205 X20 Y20
G1 F1800 X121.582 Y132.926 E19.20198
G1 X122.216 Y132.572 E19.22613
G1 X122.885 Y132.289 E19.25029
G1 X123.581 Y132.081 E19.27445
G1 X124.296 Y131.951 E19.29862
G1 X125.117 Y131.9 E19.32598
G1 X174.883 Y131.9 E20.98121
G1 X175.608 Y131.94 E21.00536
G1 X176.325 Y132.059 E21.02953
G1 X177.024 Y132.257 E21.0537
G1 X177.697 Y132.53 E21.07785
G1 X178.336 Y132.875 E21.102
G1 X178.933 Y133.289 E21.12617
G1 X179.55 Y133.833 E21.15353
G1 X179.667 Y133.95 E21.15903
G1 X180.151 Y134.491 E21.18317
G1 X180.574 Y135.082 E21.20735
G1 X180.928 Y135.716 E21.2315
G1 X181.211 Y136.385 E21.25566
G1 X181.419 Y137.081 E21.27982
G1 X181.549 Y137.796 E21.30399
G1 X181.6 Y138.617 E21.33135
G1 X181.6 Y161.383 E22.08855
G1 X181.56 Y162.108 E22.1127
G1 X181.441 Y162.825 E22.13687
G1 X181.243 Y163.524 E22.16104
G1 X180.97 Y164.197 E22.18519
G1 X180.625 Y164.836 E22.20934
G1 X180.211 Y165.433 E22.23351
G1 X179.667 Y166.05 E22.26087
G1 X179.55 Y166.167 E22.26637
G1 X179.009 Y166.651 E22.29051
G1 X178.418 Y167.074 E22.31469
G1 X177.784 Y167.428 E22.33884
G1 X177.115 Y167.711 E22.363
G1 X176.419 Y167.919 E22.38716
G1 X175.704 Y168.049 E22.41133
G1 X174.883 Y168.1 E22.43869
G1 X125.117 Y168.1 E24.09391
G1 X124.392 Y168.06 E24.11806
G1 X123.675 Y167.941 E24.14224
G1 X122.976 Y167.743 E24.1664
G1 X122.303 Y167.47 E24.19056
G1 X121.664 Y167.125 E24.21471
G1 X121.067 Y166.711 E24.23887
G1 X120.45 Y166.167 E24.26623
G1 X120.333 Y166.05 E24.27173
G1 X119.849 Y165.509 E24.29588
G1 X119.426 Y164.918 E24.32005
G1 X119.072 Y164.284 E24.3442
G1 X118.789 Y163.615 E24.36836
G1 X118.581 Y162.919 E24.39252
G1 X118.451 Y162.204 E24.41669
G1 X118.4 Y161.383 E24.44405
G1 X118.4 Y138.617 E25.20125
G1 X118.44 Y137.892 E25.2254
G1 X118.559 Y137.175 E25.24958
G1 X118.757 Y136.476 E25.27374
G1 X119.03 Y135.803 E25.2979
G1 X119.375 Y135.164 E25.32205
G1 X119.789 Y134.567 E25.34621
G1 X120.333 Y133.95 E25.37357
G1 X120.45 Y133.833 E25.37908
G1 X120.991 Y133.349 E25.40322
M204 S5000
M205 X30 Y30
G0 F3600 X121.258 Y133.647
M204 S500
M205 X20 Y20
G1 F1800 X121.833 Y133.241 E25.42663
G1 X122.451 Y132.903 E25.45006
G1 X123.102 Y132.636 E25.47346
G1 X123.78 Y132.446 E25.49688
G1 X124.475 Y132.333 E25.5203
G1 X125.117 Y132.3 E25.54168
G1 X174.883 Y132.3 E27.19691
G1 X175.586 Y132.34 E27.22032
G1 X176.28 Y132.459 E27.24374
G1 X176.955 Y132.657 E27.26714
G1 X177.604 Y132.929 E27.29055
G1 X178.218 Y133.274 E27.31397
G1 X178.789 Y133.685 E27.33737
G1 X179.267 Y134.116 E27.35878
G1 X179.384 Y134.233 E27.36428
G1 X179.853 Y134.758 E27.38769
G1 X180.259 Y135.333 E27.41111
G1 X180.597 Y135.951 E27.43453
G1 X180.864 Y136.602 E27.45794
G1 X181.054 Y137.28 E27.48136
G1 X181.167 Y137.975 E27.50478
G1 X181.2 Y138.617 E27.52616
G1 X181.2 Y161.383 E28.28336
G1 X181.16 Y162.086 E28.30678
G1 X181.041 Y162.78 E28.3302
G1 X180.843 Y163.455 E28.35359
G1 X180.571 Y164.104 E28.377
G1 X180.226 Y164.718 E28.40042
G1 X179.815 Y165.289 E28.42382
G1 X179.384 Y165.767 E28.44523
G1 X179.267 Y165.884 E28.45073
G1 X178.742 Y166.353 E28.47415
G1 X178.167 Y166.759 E28.49756
G1 X177.549 Y167.097 E28.52099
G1 X176.898 Y167.364 E28.54439
G1 X176.22 Y167.554 E28.56781
G1 X175.525 Y167.667 E28.59123
G1 X174.883 Y167.7 E28.61261
G1 X125.117 Y167.7 E30.26783
G1 X124.414 Y167.66 E30.29125
G1 X123.72 Y167.541 E30.31467
G1 X123.045 Y167.343 E30.33807
G1 X122.396 Y167.071 E30.36147
G1 X121.782 Y166.726 E30.3849
G1 X121.211 Y166.315 E30.4083
G1 X120.733 Y165.884 E30.4297
G1 X120.616 Y165.767 E30.43521
G1 X120.147 Y165.242 E30.45862
G1 X119.741 Y164.667 E30.48203
G1 X119.403 Y164.049 E30.50546
G1 X119.136 Y163.398 E30.52886
G1 X118.946 Y162.72 E30.55228
G1 X118.833 Y162.025 E30.5757
G1 X118.8 Y161.383 E30.59708
G1 X118.8 Y138.617 E31.35428
G1 X118.84 Y137.914 E31.3777
G1 X118.959 Y137.22 E31.40112
G1 X119.157 Y136.545 E31.42452
G1 X119.429 Y135.896 E31.44792
G1 X119.774 Y135.282 E31.47135
G1 X120.185 Y134.711 E31.49475
G1 X120.616 Y134.233 E31.51616
G1 X120.733 Y134.116 E31.52166
G1 X121.258 Y133.647 E31.54507
M204 S5000
M205 X30 Y30
G0 F3600 X121.525 Y133.946
M204 S500
M205 X20 Y20
G1 F1800 X122.083 Y133.557 E31.5677
G1 X122.683 Y133.235 E31.59035
G1 X123.317 Y132.986 E31.613
G1 X123.976 Y132.813 E31.63566
G1 X124.65 Y132.719 E31.6583
G1 X125.117 Y132.7 E31.67384
G1 X174.883 Y132.7 E33.32907
G1 X175.563 Y132.74 E33.35172
G1 X176.233 Y132.859 E33.37435
G1 X176.885 Y133.056 E33.39701
G1 X177.509 Y133.328 E33.41965
G1 X178.097 Y133.672 E33.44231
G1 X178.641 Y134.082 E33.46496
G1 X178.984 Y134.399 E33.4805
G1 X179.101 Y134.516 E33.486
G1 X179.554 Y135.025 E33.50866
G1 X179.943 Y135.583 E33.53129
G1 X180.265 Y136.183 E33.55394
G1 X180.514 Y136.817 E33.57659
G1 X180.687 Y137.476 E33.59925
G1 X180.781 Y138.15 E33.62189
G1 X180.8 Y138.617 E33.63743
G1 X180.8 Y161.383 E34.39463
G1 X180.76 Y162.063 E34.41729
G1 X180.641 Y162.733 E34.43992
G1 X180.444 Y163.385 E34.46257
G1 X180.172 Y164.009 E34.48522
G1 X179.828 Y164.597 E34.50787
G1 X179.418 Y165.141 E34.53053
G1 X179.101 Y165.484 E34.54606
G1 X178.984 Y165.601 E34.55157
G1 X178.475 Y166.054 E34.57423
G1 X177.917 Y166.443 E34.59685
G1 X177.317 Y166.765 E34.6195
G1 X176.683 Y167.014 E34.64216
G1 X176.024 Y167.187 E34.66482
G1 X175.35 Y167.281 E34.68745
G1 X174.883 Y167.3 E34.703
G1 X125.117 Y167.3 E36.35822
G1 X124.437 Y167.26 E36.38088
G1 X123.767 Y167.141 E36.40351
G1 X123.115 Y166.944 E36.42617
G1 X122.491 Y166.672 E36.44881
G1 X121.903 Y166.328 E36.47146
G1 X121.359 Y165.918 E36.49412
G1 X121.016 Y165.601 E36.50965
G1 X120.899 Y165.484 E36.51516
G1 X120.446 Y164.975 E36.53782
G1 X120.057 Y164.417 E36.56044
G1 X119.735 Y163.817 E36.58309
G1 X119.486 Y163.183 E36.60575
G1 X119.313 Y162.524 E36.62841
G1 X119.219 Y161.85 E36.65104
G1 X119.2 Y161.383 E36.66659
G1 X119.2 Y138.617 E37.42379
G1 X119.24 Y137.937 E37.44645
G1 X119.359 Y137.267 E37.46908
G1 X119.556 Y136.615 E37.49173
G1 X119.828 Y135.991 E37.51437
G1 X120.172 Y135.403 E37.53703
G1 X120.582 Y134.859 E37.55969
G1 X120.899 Y134.516 E37.57522
G1 X121.016 Y134.399 E37.58072
G1 X121.525 Y133.946 E37.60339
M204 S5000
M205 X30 Y30
G0 F3600 X121.791 Y134.246
M204 S500
M205 X20 Y20
G1 F1800 X122.332 Y133.874 E37.62522
G1 X122.914 Y133.57 E37.64706
G1 X123.529 Y133.339 E37.66891
G1 X124.168 Y133.184 E37.69078
G1 X125.117 Y133.1 E37.72247
G1 X174.883 Y133.1 E39.37769
G1 X175.539 Y133.14 E39.39955
G1 X176.185 Y133.259 E39.4214
G1 X176.812 Y133.456 E39.44326
G1 X177.41 Y133.728 E39.46511
G1 X177.971 Y134.07 E39.48696
G1 X178.701 Y134.682 E39.51865
G1 X178.818 Y134.799 E39.52415
G1 X179.254 Y135.291 E39.54602
G1 X179.626 Y135.832 E39.56785
G1 X179.93 Y136.414 E39.58969
G1 X180.161 Y137.029 E39.61154
G1 X180.316 Y137.668 E39.63341
G1 X180.4 Y138.617 E39.6651
G1 X180.4 Y161.383 E40.4223
G1 X180.36 Y162.039 E40.44416
G1 X180.241 Y162.685 E40.46601
G1 X180.044 Y163.312 E40.48787
G1 X179.772 Y163.91 E40.50972
G1 X179.43 Y164.471 E40.53157
G1 X178.818 Y165.201 E40.56325
G1 X178.701 Y165.318 E40.56876
G1 X178.209 Y165.754 E40.59062
G1 X177.668 Y166.126 E40.61246
G1 X177.086 Y166.43 E40.6343
G1 X176.471 Y166.661 E40.65615
G1 X175.832 Y166.816 E40.67802
G1 X174.883 Y166.9 E40.7097
G1 X125.117 Y166.9 E42.36493
G1 X124.461 Y166.86 E42.38679
G1 X123.815 Y166.741 E42.40863
G1 X123.188 Y166.544 E42.43049
G1 X122.59 Y166.272 E42.45234
G1 X122.029 Y165.93 E42.4742
G1 X121.299 Y165.318 E42.50588
G1 X121.182 Y165.201 E42.51138
G1 X120.746 Y164.709 E42.53325
G1 X120.374 Y164.168 E42.55509
G1 X120.07 Y163.586 E42.57692
G1 X119.839 Y162.971 E42.59877
G1 X119.684 Y162.332 E42.62064
G1 X119.6 Y161.383 E42.65233
G1 X119.6 Y138.617 E43.40953
G1 X119.64 Y137.961 E43.43139
G1 X119.759 Y137.315 E43.45324
G1 X119.956 Y136.688 E43.4751
G1 X120.228 Y136.09 E43.49695
G1 X120.57 Y135.529 E43.5188
G1 X121.182 Y134.799 E43.55048
G1 X121.299 Y134.682 E43.55599
G1 X121.791 Y134.246 E43.57785
M204 S5000
M205 X30 Y30
G0 F3600 X122.056 Y134.547
M204 S500
M205 X20 Y20
G1 F1800 X122.579 Y134.192 E43.59888
G1 X123.143 Y133.906 E43.61991
G1 X123.738 Y133.694 E43.64092
G1 X124.356 Y133.558 E43.66196
G1 X125.117 Y133.5 E43.68735
G1 X174.883 Y133.5 E45.34257
G1 X175.514 Y133.54 E45.3636
G1 X176.135 Y133.659 E45.38463
G1 X176.735 Y133.856 E45.40564
G1 X177.307 Y134.127 E45.42669
G1 X177.839 Y134.467 E45.44769
G1 X178.419 Y134.964 E45.47309
G1 X178.536 Y135.081 E45.4786
G1 X178.953 Y135.556 E45.49962
G1 X179.308 Y136.079 E45.52064
G1 X179.594 Y136.643 E45.54167
G1 X179.806 Y137.238 E45.56268
G1 X179.942 Y137.856 E45.58373
G1 X180 Y138.617 E45.60911
G1 X180 Y161.383 E46.36631
